X: 1
T: Non sei tu
C: Dario Maggiorani
O: Italy
R: waltz
Z: 1999 John Chambers <jc:trillian.mit.edu>
M: 3/4
L: 1/8
K: C
%%continueall
% - - - - - - - - - -
"Intro"D2 E2 | "Dm"F2 G2 A2 | "E7"B2 c2 d2 | "Am"e2 e2 c2 |\
   "D7"e4 dc | "F"A4 dc | "Fm"_A4 e2 | "D"d6 ||
"Verse"\
   zE FG AB | "Dm"cA FD EF | "G7"Gz z2 G2 | "C"(3EF^F G4 |
w: Ac-ca-rez-za vo'un so-gno un~il-lu-sion D'a-mor di Fe-li-ci-t\'a
   zE FG AB | "Dm"cA FD EF | "G7"Gz z2 G2 | "C"(3EF^F G4 |
w: spe-ra-vo di te-ner-ti sem-pre nel mio cuor per O'i-ter-ni-t\'a
   zG {_B}AG ^FG | "F"c6 | "A7"zE {G}FE ^DE | "Dm"A6 |
w: ma tut-to'e sta-to Van or-mai-tu sei-lon-tar
   zD {F}ED ^CD | "D7"E2 ^F2 G2 | A2 B2 c2 | "G7"d6- | d2 z2 |
w: i De-si-de-r\'em me non a-Vran-no do man!_
"Chorus"|: cd | "C"c4 Bc | "Cdim"B4 AB | "C"A2 E4- | E4 cd |
w: Non Sei Tu Non Sei Piu-la m'ia Vi Ta_  L'il-lu-
  c4 Bc | "Ebdim"B4 AB | "Dm"A2 F4- | F2 D2 E2 |
w: sion La pas-sion s'e per-du-ta_ E sav-
  "Dm"F2 G2 A2 | "G7"B2 dz zB | "Dm7"A6 | z2 D2 E2 |
w: ni-ta nel so-gno con te  E piu
  "Dm"F2 G2 A2 | "G7"B2 dz zB | "C"G6- | G2 z2 cd |
w: nul-la ri-ma-na per me._   Non Sei
  "C"c4 Bc | "Cdim"B4 AB | "C"A2 E4- | E4 cd |
w: Tu Non Sei piu nel m'io cuo-re_ s'ap-pas-
  c4 Bc | "Ebdim"B4 AB | "Dm"A2 F4- | F2 D2 E2 |
w: si tra-mon-te quest-a-mo-re*  un ri-
  "Dm"F2 G2 A2 | "E7"B2 c2 d2 | "Am"e2 e2 e2 | "D7"e4 dc |
w: cor-do sol-tan-to mi res-ta Di te Nul-la
  "F"A4 dc | "Fm"_A4 "G7"e2 | "C"c6- | c2 z2 :|
w: piu sa-rai Tu per me._
% - - - - - - - - - -

%%sep 1 1 500
%%sep 1 1 500

